X:1401
T:Willie With His Tartan Trews
P:Willie With His Tartan Trews
C:Traditional?
R:Jig (8x40) ABABB
B:RSCDS 14-1
Z:Anselm Lingnau <anselm@strathspey.org>
M:6/8
L:1/8
K:A
f|"A"ecA "D"def|"A"ece c2f|ecA edc|"G"BcB d2 f|
  "A"ecA "D"def|"A"ecf c2e|"D"faf "A7"edc|"Bm"BcB d2||
f|"A"ecA acA|ecA "D"d2f|"A"ecA acA|"Bm"BcB d2f|
  "A"ecA acA|ecA cde|"D"faf "A"ecA|"G"BcB d2|]
